static/img/xr/Button_Primary_48.svg

<svg fill="none" height="48" viewBox="0 0 56 48" width="56" xmlns="http://www.w3.org/2000/svg"><rect fill="#0063a3" height="48" rx="2" width="56"/><path d="m9.125 20.4336h2.5488c1.1055 0 1.9395.1602 2.502.4805s.8437.873.8437 1.6582c0 .3281-.0586.625-.1757.8906-.1133.2617-.2793.4785-.4981.6504-.2187.1679-.4883.2812-.8086.3398v.0586c.332.0586.627.1621.8848.3106.2617.1484.4668.3613.6152.6386.1524.2774.2285.6368.2285 1.0782 0 .5234-.125.9687-.375 1.3359-.2461.3672-.5996.6465-1.0605.8379-.4571.1914-1 .2871-1.6289.2871h-3.0762zm1.4062 3.5332h1.3477c.6367 0 1.0781-.1035 1.3242-.3106.2461-.207.3692-.5097.3692-.9082 0-.4062-.1465-.6992-.4395-.8789-.289-.1796-.75-.2695-1.3828-.2695h-1.2188zm0 1.1367v2.7188h1.4825c.6562 0 1.1172-.127 1.3828-.3809s.3984-.5976.3984-1.0312c0-.2657-.0605-.4961-.1816-.6914-.1172-.1954-.3106-.3458-.5801-.4512-.2695-.1094-.6328-.1641-1.0898-.1641zm12.0176-2.5898v6.4863h-1.084l-.1875-.873h-.0761c-.1367.2226-.3106.4082-.5215.5566-.2109.1445-.4453.2519-.7031.3223-.2578.0742-.5293.1113-.8145.1113-.4883 0-.9062-.082-1.2539-.2461-.3437-.168-.6074-.4258-.791-.7734-.1836-.3477-.2754-.7969-.2754-1.3477v-4.2363h1.3828v3.9785c0 .5039.1016.8808.3047 1.1308.207.25.5273.375.9609.375.418 0 .75-.0859.9961-.2578.2461-.1718.4199-.4257.5215-.7617.1055-.3359.1582-.748.1582-1.2363v-3.2285zm4.3887 5.4902c.1797 0 .3574-.0156.5332-.0469.1758-.0351.3359-.0761.4805-.123v1.043c-.1524.0664-.3496.123-.5918.1699s-.4942.0703-.7559.0703c-.3672 0-.6973-.0606-.9902-.1817-.293-.125-.5254-.3378-.6973-.6386s-.2578-.7168-.2578-1.2481v-3.4863h-.8848v-.6152l.9493-.4864.4511-1.3886h.8672v1.4414h1.8574v1.0488h-1.8574v3.4687c0 .3282.082.5723.2461.7325.1641.1601.3809.2402.6504.2402zm4.7461 0c.1797 0 .3574-.0156.5332-.0469.1758-.0351.3359-.0761.4805-.123v1.043c-.1524.0664-.3496.123-.5918.1699s-.4942.0703-.7559.0703c-.3672 0-.6973-.0606-.9902-.1817-.293-.125-.5254-.3378-.6973-.6386s-.2578-.7168-.2578-1.2481v-3.4863h-.8848v-.6152l.9493-.4864.4511-1.3886h.8672v1.4414h1.8574v1.0488h-1.8574v3.4687c0 .3282.082.5723.2461.7325.1641.1601.3809.2402.6504.2402zm8.0742-2.2617c0 .539-.0703 1.0176-.2109 1.4355-.1407.418-.3457.7715-.6153 1.0606-.2695.2851-.5937.5039-.9726.6562-.3789.1485-.8067.2227-1.2832.2227-.4453 0-.8535-.0742-1.2246-.2227-.3711-.1523-.6934-.3711-.9668-.6562-.2696-.2891-.4785-.6426-.627-1.0606-.1484-.4179-.2226-.8965-.2226-1.4355 0-.7149.123-1.3203.3691-1.8164.25-.5.6055-.8809 1.0664-1.1426s1.0098-.3926 1.6465-.3926c.5977 0 1.125.1309 1.582.3926.4571.2617.8145.6426 1.0723 1.1426s.3867 1.1054.3867 1.8164zm-4.7051 0c0 .4726.0567.8769.17 1.2129.1171.3359.2968.5937.539.7734.2422.1758.5547.2637.9375.2637s.6953-.0879.9375-.2637c.2422-.1797.4199-.4375.5332-.7734.1133-.336.1699-.7403.1699-1.2129 0-.4727-.0566-.8731-.1699-1.2012-.1133-.332-.291-.584-.5332-.7558-.2422-.1758-.5566-.2637-.9433-.2637-.5704 0-.9864.1914-1.2481.5742s-.3926.9316-.3926 1.6465zm9.668-3.3516c.7305 0 1.2988.1895 1.7051.5684.4101.375.6152.9785.6152 1.8105v4.2305h-1.3769v-3.9727c0-.5039-.1036-.8808-.3106-1.1308-.207-.2539-.5273-.3809-.9609-.3809-.6289 0-1.0664.1934-1.3125.5801-.2422.3867-.3633.9473-.3633 1.6816v3.2227h-1.377v-6.4863h1.0723l.1934.8789h.0761c.1407-.2266.3145-.4121.5215-.5567.211-.1484.4453-.2597.7031-.3339.2618-.0743.5333-.1114.8145-.1114z" fill="#f1f1f6"/></svg>

<svg width="56" height="48" viewBox="0 0 56 48" fill="none" xmlns="http://www.w3.org/2000/svg">
<rect width="56" height="48" rx="2" fill="#0063A3"/>
<path d="M9.125 20.4336H11.6738C12.7793 20.4336 13.6133 20.5938 14.1758 20.9141C14.7383 21.2344 15.0195 21.7871 15.0195 22.5723C15.0195 22.9004 14.9609 23.1973 14.8438 23.4629C14.7305 23.7246 14.5645 23.9414 14.3457 24.1133C14.127 24.2812 13.8574 24.3945 13.5371 24.4531V24.5117C13.8691 24.5703 14.1641 24.6738 14.4219 24.8223C14.6836 24.9707 14.8887 25.1836 15.0371 25.4609C15.1895 25.7383 15.2656 26.0977 15.2656 26.5391C15.2656 27.0625 15.1406 27.5078 14.8906 27.875C14.6445 28.2422 14.291 28.5215 13.8301 28.7129C13.373 28.9043 12.8301 29 12.2012 29H9.125V20.4336ZM10.5312 23.9668H11.8789C12.5156 23.9668 12.957 23.8633 13.2031 23.6562C13.4492 23.4492 13.5723 23.1465 13.5723 22.748C13.5723 22.3418 13.4258 22.0488 13.1328 21.8691C12.8438 21.6895 12.3828 21.5996 11.75 21.5996H10.5312V23.9668ZM10.5312 25.1035V27.8223H12.0137C12.6699 27.8223 13.1309 27.6953 13.3965 27.4414C13.6621 27.1875 13.7949 26.8438 13.7949 26.4102C13.7949 26.1445 13.7344 25.9141 13.6133 25.7188C13.4961 25.5234 13.3027 25.373 13.0332 25.2676C12.7637 25.1582 12.4004 25.1035 11.9434 25.1035H10.5312ZM22.5488 22.5137V29H21.4648L21.2773 28.127H21.2012C21.0645 28.3496 20.8906 28.5352 20.6797 28.6836C20.4688 28.8281 20.2344 28.9355 19.9766 29.0059C19.7188 29.0801 19.4473 29.1172 19.1621 29.1172C18.6738 29.1172 18.2559 29.0352 17.9082 28.8711C17.5645 28.7031 17.3008 28.4453 17.1172 28.0977C16.9336 27.75 16.8418 27.3008 16.8418 26.75V22.5137H18.2246V26.4922C18.2246 26.9961 18.3262 27.373 18.5293 27.623C18.7363 27.873 19.0566 27.998 19.4902 27.998C19.9082 27.998 20.2402 27.9121 20.4863 27.7402C20.7324 27.5684 20.9062 27.3145 21.0078 26.9785C21.1133 26.6426 21.166 26.2305 21.166 25.7422V22.5137H22.5488ZM26.9375 28.0039C27.1172 28.0039 27.2949 27.9883 27.4707 27.957C27.6465 27.9219 27.8066 27.8809 27.9512 27.834V28.877C27.7988 28.9434 27.6016 29 27.3594 29.0469C27.1172 29.0938 26.8652 29.1172 26.6035 29.1172C26.2363 29.1172 25.9062 29.0566 25.6133 28.9355C25.3203 28.8105 25.0879 28.5977 24.916 28.2969C24.7441 27.9961 24.6582 27.5801 24.6582 27.0488V23.5625H23.7734V22.9473L24.7227 22.4609L25.1738 21.0723H26.041V22.5137H27.8984V23.5625H26.041V27.0312C26.041 27.3594 26.123 27.6035 26.2871 27.7637C26.4512 27.9238 26.668 28.0039 26.9375 28.0039ZM31.6836 28.0039C31.8633 28.0039 32.041 27.9883 32.2168 27.957C32.3926 27.9219 32.5527 27.8809 32.6973 27.834V28.877C32.5449 28.9434 32.3477 29 32.1055 29.0469C31.8633 29.0938 31.6113 29.1172 31.3496 29.1172C30.9824 29.1172 30.6523 29.0566 30.3594 28.9355C30.0664 28.8105 29.834 28.5977 29.6621 28.2969C29.4902 27.9961 29.4043 27.5801 29.4043 27.0488V23.5625H28.5195V22.9473L29.4688 22.4609L29.9199 21.0723H30.7871V22.5137H32.6445V23.5625H30.7871V27.0312C30.7871 27.3594 30.8691 27.6035 31.0332 27.7637C31.1973 27.9238 31.4141 28.0039 31.6836 28.0039ZM39.7578 25.7422C39.7578 26.2812 39.6875 26.7598 39.5469 27.1777C39.4062 27.5957 39.2012 27.9492 38.9316 28.2383C38.6621 28.5234 38.3379 28.7422 37.959 28.8945C37.5801 29.043 37.1523 29.1172 36.6758 29.1172C36.2305 29.1172 35.8223 29.043 35.4512 28.8945C35.0801 28.7422 34.7578 28.5234 34.4844 28.2383C34.2148 27.9492 34.0059 27.5957 33.8574 27.1777C33.709 26.7598 33.6348 26.2812 33.6348 25.7422C33.6348 25.0273 33.7578 24.4219 34.0039 23.9258C34.2539 23.4258 34.6094 23.0449 35.0703 22.7832C35.5312 22.5215 36.0801 22.3906 36.7168 22.3906C37.3145 22.3906 37.8418 22.5215 38.2988 22.7832C38.7559 23.0449 39.1133 23.4258 39.3711 23.9258C39.6289 24.4258 39.7578 25.0312 39.7578 25.7422ZM35.0527 25.7422C35.0527 26.2148 35.1094 26.6191 35.2227 26.9551C35.3398 27.291 35.5195 27.5488 35.7617 27.7285C36.0039 27.9043 36.3164 27.9922 36.6992 27.9922C37.082 27.9922 37.3945 27.9043 37.6367 27.7285C37.8789 27.5488 38.0566 27.291 38.1699 26.9551C38.2832 26.6191 38.3398 26.2148 38.3398 25.7422C38.3398 25.2695 38.2832 24.8691 38.1699 24.541C38.0566 24.209 37.8789 23.957 37.6367 23.7852C37.3945 23.6094 37.0801 23.5215 36.6934 23.5215C36.123 23.5215 35.707 23.7129 35.4453 24.0957C35.1836 24.4785 35.0527 25.0273 35.0527 25.7422ZM44.7207 22.3906C45.4512 22.3906 46.0195 22.5801 46.4258 22.959C46.8359 23.334 47.041 23.9375 47.041 24.7695V29H45.6641V25.0273C45.6641 24.5234 45.5605 24.1465 45.3535 23.8965C45.1465 23.6426 44.8262 23.5156 44.3926 23.5156C43.7637 23.5156 43.3262 23.709 43.0801 24.0957C42.8379 24.4824 42.7168 25.043 42.7168 25.7773V29H41.3398V22.5137H42.4121L42.6055 23.3926H42.6816C42.8223 23.166 42.9961 22.9805 43.2031 22.8359C43.4141 22.6875 43.6484 22.5762 43.9062 22.502C44.168 22.4277 44.4395 22.3906 44.7207 22.3906Z" fill="#F1F1F6"/>
</svg>
